!!!!SEGMENT: Con2008-Pater_peccavi.krn
!!!id: Con2008
!!!AGN: Motet
!!!voices: 4
!!!COM: Jean Conseil
!!!OTL: Pater peccavi
**kern	**kern	**kern	**kern
*part4	*part3	*part2	*part1
*staff4	*staff3	*staff2	*staff1
*I"Bassus	*I"Tenor	*I"Altus	*I"Superius
*I'B	*I'T	*I'A	*I'S
*clefF4	*clefGv2	*clefGv2	*clefG2
*k[]	*k[]	*k[]	*k[]
*M2/1	*M2/1	*M2/1	*M2/1
*met(C|)	*met(C|)	*met(C|)	*met(C|)
!!Section: Prima pars: Pater peccavi
!!!OMD: Prima pars: Pater peccavi
=1	=1	=1	=1
0r	0r	0G	1r
.	.	.	[1d
=2	=2	=2	=2
0r	1r	1G	1d]
.	[1D	[1d	1d
=3	=3	=3	=3
0r	1D]	2d]	1.a
.	.	2e	.
.	1D	1f	.
.	.	.	2b
=4	=4	=4	=4
0AA	1A	[0e	1cc
.	2.A	.	2a
.	.	.	[2cc
.	4B	.	.
=5	=5	=5	=5
1AA	1c	1e]	2cc]
.	.	.	4b
.	.	.	4a
[1E	1B	2r	4g
.	.	.	4a
.	.	[2g	4b
.	.	.	4cc
=6	=6	=6	=6
2E]	2G	2g]	2b
2F	2A	2f	1a
1G	1B	2d	.
.	.	2d	2g
=7	=7	=7	=7
2F	2r	2f	[0a
2D	1d	2f	.
1A	.	1e	.
.	2c	.	.
=8	=8	=8	=8
2r	2.A	2r	0a]
1D	.	1f	.
.	4G	.	.
.	4A	.	.
.	4B	.	.
2C	[2c	2e	.
=9	=9	=9	=9
2AA	4c]	2c	1a
.	4B	.	.
2AA	4A	2c	.
.	8GL	.	.
.	8FJ	.	.
1C	2E	2e	1r
.	[2A	2e	.
=10	=10	=10	=10
1BB	4A]	2.d	2r
.	4G	.	.
.	4G	.	1dd
.	8FL	4e	.
.	8GJ	.	.
[1AA	[1A	2f	.
.	.	[2e	2cc
=11	=11	=11	=11
0AA]	2A]	4e]	2a
.	.	4d	.
.	4G	4c	2a
.	4F	4B	.
.	2E	1A	2cc
.	2F	.	2cc
=12	=12	=12	=12
0r	1G	2r	1b
.	.	1g	.
.	2r	.	2r
.	[2G	2g	[2dd
=13	=13	=13	=13
0r	4G]	2d	2dd]
.	4A	.	.
.	4B	2d	2dd
.	4c	.	.
.	2d	1f	2a
.	2d	.	2a
=14	=14	=14	=14
1r	2A	1e	2cc
.	2c	.	2cc
2r	2.G	1d	[1b
[2G	.	.	.
.	4A	.	.
=15	=15	=15	=15
2G]	4B	1g	2b]
.	4c	.	.
2G	1d	.	2g
2D	.	[1f	2a
2D	2d	.	[2b
=16	=16	=16	=16
1F	2c	2f]	2b]
.	2A	2d	1a
1E	1B	1e	.
.	.	.	2g#i
=17	=17	=17	=17
1AA	1A	1e	0a
[1AA	[1c	1e	.
=18	=18	=18	=18
1AA]	1c]	0e	1a
1AA	1c	.	1a
=19	=19	=19	=19
1E	2B	1.e	1g
.	2.c	.	.
[1F	.	.	[1a
.	4B	.	.
.	4A	4d	.
.	4G	4c	.
=20	=20	=20	=20
1F]	1A	1d	1a]
[1E	1B	[1e	[1g
=21	=21	=21	=21
1E]	1.c	0e_	1g]
[1AA	.	.	[1cc
.	2B	.	.
=22	=22	=22	=22
1AA]	1.A	1e]	2cc]
.	.	.	2b
1r	.	[1f	[1a
.	2G	.	.
=23	=23	=23	=23
1r	2F	2f]	2a]
.	2G	2e	2g
[1F	2D	2d	2.f
.	[2A	2c	.
.	.	.	4e
=24	=24	=24	=24
2F]	2A]	2d	2d
2E	1G	2e	1c
1D	.	1f	.
.	2F	.	2B
=25	=25	=25	=25
2r	1A	0e	2c
1A	.	.	1cc
.	2r	.	.
2G	2E	.	2b
=26	=26	=26	=26
2F	2F	2r	2a
2E	2G	2c	2g
2D	[1A	2d	2f
2C	.	2e	2e
=27	=27	=27	=27
1D	0A_	1f	1d
[1AA	.	1e	[1c
=28	=28	=28	=28
0AA_	1A]	2r	1c]
.	.	2A	.
.	[1E	2A	2r
.	.	2A	2e
=29	=29	=29	=29
1AA]	1E]	1.c	2e
.	.	.	2e
1r	1r	.	[1g
.	.	4B	.
.	.	4A	.
=30	=30	=30	=30
0r	0r	2B	2g]
.	.	2c	4f
.	.	.	4e
.	.	2d	2f
.	.	2e	2g
=31	=31	=31	=31
0r	0r	2c	2a
.	.	2d	2b
.	.	4e	2g
.	.	4d	.
.	.	4c	[2cc
.	.	4B	.
=32	=32	=32	=32
0r	0r	2A	2cc]
.	.	2B	4b
.	.	.	4a
.	.	4c	2g
.	.	4B	.
.	.	4A	[2a
.	.	4G	.
=33	=33	=33	=33
0r	0r	4F	4a]
.	.	4E	4g
.	.	4D	4f
.	.	4E	4e
.	.	4F	4d
.	.	4G	4e
.	.	4A	4f
.	.	4B	4g
=34	=34	=34	=34
0r	0r	4c	4a
.	.	4d	4b
.	.	4e	2cc
.	.	4c	.
.	.	4d	2b
.	.	4c	.
.	.	4B	[2a
.	.	4A	.
=35	=35	=35	=35
1r	0r	1B	2a]
.	.	.	2g#i
2r	.	[1A	[1a
2AA	.	.	.
=36	=36	=36	=36
2AA	2r	1A]	1a]
2AA	2E	.	.
[1C	2E	1r	1r
.	2E	.	.
=37	=37	=37	=37
2C]	1.G	0r	0r
4BB	.	.	.
4AA	.	.	.
2BB	.	.	.
2C	4F	.	.
.	4E	.	.
=38	=38	=38	=38
2D	2F	0r	0r
2E	2G	.	.
2C	2A	.	.
2D	2B	.	.
=39	=39	=39	=39
4E	2G	0r	0r
4D	.	.	.
4C	1c	.	.
4BB	.	.	.
2AA	.	.	.
2BB	4B	.	.
.	4A	.	.
=40	=40	=40	=40
2C	2G	0r	0r
2AA	2.A	.	.
2.D	.	.	.
.	4G	.	.
.	4F	.	.
4C	4E	.	.
=41	=41	=41	=41
2BB	4D	0r	0r
.	4E	.	.
4AA	4F	.	.
4BB	4G	.	.
4C	4A	.	.
4D	4B	.	.
4E	2c	.	.
4C	.	.	.
=42	=42	=42	=42
4D	2B	0r	0r
4C	.	.	.
4BB	1A	.	.
4AA	.	.	.
1BB	.	.	.
.	2G#i	.	.
=43	=43	=43	=43
2AA	2A	2r	2r
2AA	2A	2e	2cc
2AA	2A	2e	2cc
2AA	2A	2e	2cc
=44	=44	=44	=44
1E	1G	1e	2b
.	.	.	2.cc
[1F	[1A	[1c	.
.	.	.	4b
.	.	.	4a
.	.	.	4g
=45	=45	=45	=45
1F]	1A]	2c]	1a
.	.	2d	.
1E	1B	[1e	[1g
=46	=46	=46	=46
1C	1c	2e]	2g]
.	.	2e	2g
1D	2A	1d	2f
.	[2B	.	2f
=47	=47	=47	=47
1E	2B]	1G	1.e
.	2.c	.	.
1F	.	1A	.
.	4B	.	.
.	4A	.	4d
.	4G	.	4c
=48	=48	=48	=48
1F	1A	1.c	1d
1E	2G	.	[1e
.	[2A	4B	.
.	.	4A	.
=49	=49	=49	=49
1E	2A]	2B	1e]
.	2G#i	2B	.
[1AAl	[1Al	[1cl	[1el
=50	=50	=50	=50
0AA]	0A]	0c]	0e]
=51||	=51||	=51||	=51||
*M2/1	*M2/1	*M2/1	*M2/1
*met(C|)	*met(C|)	*met(C|)	*met(C|)
!!Section: Secunda pars: Quanti mercenari
!!!OMD: Secunda pars: Quanti mercenari
0AA	0A	0c	0e
=52	=52	=52	=52
0C	0G	0c	0e
=53	=53	=53	=53
4GG	1G	1B	1.d
4AA	.	.	.
4BB	.	.	.
4C	.	.	.
4D	2F	2A	.
4E	.	.	.
[2F	[2A	4F	2c
.	.	4G	.
=54	=54	=54	=54
4F]	2A]	4A	1f
4E	.	4B	.
4D	1G	1c	.
4C	.	.	.
1D	.	.	1f
.	2F	2B	.
=55	=55	=55	=55
0C	0G	0c	[0e
=56	=56	=56	=56
2r	2r	0r	0e]
1E	1G	.	.
2C	2E	.	.
=57	=57	=57	=57
2D	2F	0r	0r
2E	2G	.	.
2.F	4A	.	.
.	4B	.	.
.	4c	.	.
4E	4A	.	.
=58	=58	=58	=58
2D	2B	0r	0r
2C	1A	.	.
1BB	.	.	.
.	2G#i	.	.
=59	=59	=59	=59
4AA	2A	0r	0r
4BB	.	.	.
4C	4E	.	.
4D	4F	.	.
4E	4G	.	.
4F	4A	.	.
[2G	4B	.	.
.	4c	.	.
=60	=60	=60	=60
4G]	2.d	0r	0r
4F	.	.	.
4D	.	.	.
4E	4c	.	.
2F	2A	.	.
2G	2B	.	.
=61	=61	=61	=61
2E	2c	0r	0r
2.F	1d	.	.
4E	.	.	.
4D	[2c	.	.
4C	.	.	.
=62	=62	=62	=62
2D	2c]	1r	1r
2D	2B	.	.
[1C	[1c	2r	2r
.	.	[2e	[2g
=63	=63	=63	=63
1C]	1c]	2e]	2g]
.	.	2c	2e
1r	1r	2d	2f
.	.	2e	2g
=64	=64	=64	=64
0r	0r	2.f	4a
.	.	.	4b
.	.	.	4cc
.	.	4e	4dd
.	.	2d	2b
.	.	2c	[2a
=65	=65	=65	=65
0r	0r	1B	2a]
.	.	.	2g
.	.	4A	2a
.	.	4B	.
.	.	4c	4e
.	.	4d	4f
=66	=66	=66	=66
0r	0r	4e	4g
.	.	4f	4a
.	.	2.g	4b
.	.	.	4cc
.	.	.	2.dd
.	.	4f	.
.	.	4d	.
.	.	4e	4cc
=67	=67	=67	=67
0r	2r	2f	4a
.	.	.	4b
.	4E	2.g	2cc
.	4F	.	.
.	4G	.	1b
.	4A	4f	.
.	4B	4d	.
.	4c	4e	.
=68	=68	=68	=68
0r	2.d	1f	2a
.	.	.	1dd
.	4c	.	.
.	4A	1e	.
.	4B	.	.
.	4c	.	2cc
.	4A	.	.
=69	=69	=69	=69
0r	2B	2d	2dd
.	2c	2e	1cc
.	1G	2d	.
.	.	4c	2b
.	.	4B	.
=70	=70	=70	=70
2r	1r	4A	0cc
.	.	4B	.
4AA	.	4c	.
4BB	.	4d	.
4C	2r	4e	.
4D	.	4f	.
4E	2G	[2g	.
4F	.	.	.
=71	=71	=71	=71
2.G	4G	4g]	2r
.	4A	4f	.
.	4B	4d	4g
4F	4c	4e	4a
2.D	4d	4f	4b
.	4e	4g	4cc
.	[2f	[2a	[2dd
4E	.	.	.
=72	=72	=72	=72
4F	4f]	2a]	4dd]
4G	4e	.	4cc
2A	4d	2f	1cc
.	4c	.	.
1G	2d	1g	.
.	2d	.	2b
=73	=73	=73	=73
1C	1c	1e	1cc
[1C	[1e	[1g	[1cc
=74	=74	=74	=74
2C]	2e]	2g]	2cc]
2C	2e	2g	2cc
1C	1e	1g	1cc
=75	=75	=75	=75
1G	1d	1g	1b
1C	[1e	[1g	[1cc
=76	=76	=76	=76
1.C	2e]	2g]	2cc]
.	2d	2f	2b
.	2c	2e	2a
2C	2B	2e	[2g
=77	=77	=77	=77
2D	1A	1d	2g]
2D	.	.	2f#i
[1E	[1G	1B	1g
=78	=78	=78	=78
1E]	1G]	1g	1.cc
1C	[1c	1e	.
.	.	.	2b
=79	=79	=79	=79
1.F	2c]	1f	2.a
.	2B	.	.
.	.	.	4g
.	2A	1c	2f
2C	2G	.	[2e
=80	=80	=80	=80
2D	1F	2.A	2e]
2D	.	.	2d
.	.	4B	.
1AA	[1E	[1c	[1e
=81	=81	=81	=81
2r	1E]	2c]	0e_
2E	.	4B	.
.	.	4A	.
1E	2r	[1G	.
.	2B	.	.
=82	=82	=82	=82
2r	1B	1G]	1e]
2E	.	.	.
2E	2r	1r	1r
[2D	2B	.	.
=83	=83	=83	=83
2D]	2B	0r	0r
1F	1A	.	.
2E	[2c	.	.
=84	=84	=84	=84
2D	2c]	0r	0r
2D	2B	.	.
2.C	2A	.	.
.	2A	.	.
4D	.	.	.
=85	=85	=85	=85
4E	2.G	0r	0r
4F	.	.	.
1G	.	.	.
.	4A	.	.
.	4B	.	.
.	4c	.	.
4F	[2d	.	.
4E	.	.	.
=86	=86	=86	=86
4F	2d]	0r	0r
4G	.	.	.
1A	4c	.	.
.	4B	.	.
.	4c	.	.
.	4d	.	.
2G	[2e	.	.
=87	=87	=87	=87
1F	2e]	1r	0r
.	2d	.	.
[1E	1e	2r	.
.	.	2e	.
=88	=88	=88	=88
1E]	0r	1e	2r
.	.	.	2b
1r	.	2r	1b
.	.	2e	.
=89	=89	=89	=89
0r	0r	2e	2r
.	.	1d	2b
.	.	.	2b
.	.	[2f	[2a
=90	=90	=90	=90
0r	0r	2f]	2a]
.	.	2e	1cc
.	.	2d	.
.	.	2d	2b
=91	=91	=91	=91
0r	2r	4c	2a
.	.	4B	.
.	2G	1e	2g
.	2A	.	1f
.	2B	2d	.
=92	=92	=92	=92
0r	2.c	2e	2e
.	.	1c	2g
.	4B	.	.
.	2A	.	2a
.	[2G	2d	2b
=93	=93	=93	=93
1C	2G]	2e	2.cc
.	2E	2g	.
.	.	.	4b
2D	2F	2f	4a
.	.	.	4g
2E	2G	[2e	[2cc
=94	=94	=94	=94
1F	1A	2e]	4cc]
.	.	.	4b
.	.	2d	1a
1E	1B	[1e	.
.	.	.	2g#i
=95	=95	=95	=95
1AA	1A	1e]	1a
2r	2r	2r	2r
2AA	2A	2e	2cc
=96	=96	=96	=96
2AA	2A	2e	2cc
2AA	2A	2e	2cc
1E	1G	1e	2b
.	.	.	[2cc
=97	=97	=97	=97
0F	0A	1.c	4cc]
.	.	.	4b
.	.	.	4a
.	.	.	4g
.	.	.	1a
.	.	2d	.
=98	=98	=98	=98
1E	1B	1e	1g
1C	1c	1e	1g
=99	=99	=99	=99
1D	2A	2d	2f
.	2F	2B	2f
2C	2G	2c	2e
2AA	[2A	2c	[2f
=100	=100	=100	=100
2C	4A]	1c	2f]
.	4G	.	.
2C	4F	.	1e
.	4E	.	.
1D	1F	2A	.
.	.	2A	2d
=101	=101	=101	=101
1.AA	2E	2.c	[0el
.	2A	.	.
.	.	4B	.
.	[1c	1A	.
2AA	.	.	.
=102	=102	=102	=102
1.C	2c]	1G	0e_
.	2B	.	.
.	2A	[1c	.
2BB	2G	.	.
=103	=103	=103	=103
2AA	2A	2c]	0e_
2GG	2B	2B	.
1AA	1c	1A	.
=104	=104	=104	=104
0El	0Bl	0Gl	0e]
==	==	==	==
*-	*-	*-	*-
!!!system-decoration: [*]
!!!RDF**kern: i = editorial accidental
!!!RDF**kern: l = terminal long
!!!ENC: Janosch Umbreit
!!!END: 2025/10/17
!!!EED: Benjamin Ory
!!!EEV: 2025/10/22
!!!YEC: Copyright 2025 Benjamin Ory, All Rights Reserved
!!!ONB: Translated from MusicXML on 2025/10/22